app/public/icons/navMegaphone.svg

<svg width="25" height="25" viewBox="0 0 25 25" fill="none" xmlns="http://www.w3.org/2000/svg">
<g clip-path="url(#clip0_321_939)">
<path d="M23.4375 1.56229C23.4375 0.932406 23.0566 0.361117 22.4707 0.116976C21.8848 -0.127165 21.2158 0.00955418 20.7666 0.45389L18.6377 2.58768C16.2939 4.93143 13.1152 6.24979 9.7998 6.24979H9.375H7.8125H3.125C1.40137 6.24979 0 7.65116 0 9.37479V14.0623C0 15.7859 1.40137 17.1873 3.125 17.1873V23.4373C3.125 24.3015 3.82324 24.9998 4.6875 24.9998H7.8125C8.67676 24.9998 9.375 24.3015 9.375 23.4373V17.1873H9.7998C13.1152 17.1873 16.2939 18.5056 18.6377 20.8494L20.7666 22.9783C21.2158 23.4275 21.8848 23.5594 22.4707 23.3152C23.0566 23.0711 23.4375 22.5047 23.4375 21.8699V14.6678C24.3457 14.2381 25 13.0808 25 11.7185C25 10.3562 24.3457 9.19901 23.4375 8.76932V1.56229ZM20.3125 5.30741V11.7185V18.1297C17.4414 15.5174 13.6963 14.0623 9.7998 14.0623H9.375V9.37479H9.7998C13.6963 9.37479 17.4414 7.91971 20.3125 5.30741Z" fill="#1351B4"/>
<rect x="2.16699" y="8.6582" width="5.16953" height="6.20399" rx="2.58477" fill="white"/>
<path d="M5.0918 18.2155C5.0918 17.6645 5.53851 17.2178 6.08956 17.2178H6.33922C6.89027 17.2178 7.33698 17.6645 7.33698 18.2155V22.0818C7.33698 22.7018 6.83438 23.2044 6.21439 23.2044V23.2044C5.5944 23.2044 5.0918 22.7018 5.0918 22.0818V18.2155Z" fill="white"/>
</g>
<defs>
<clipPath id="clip0_321_939">
<rect width="25" height="25" fill="white"/>
</clipPath>
</defs>
</svg>

<svg xmlns="http://www.w3.org/2000/svg" width="25" height="25" fill="none"><g clip-path="url(#a)"><path fill="#1351B4" d="M23.438 1.562a1.565 1.565 0 0 0-2.67-1.108l-2.13 2.134A12.5 12.5 0 0 1 9.8 6.25H3.125A3.13 3.13 0 0 0 0 9.375v4.687a3.13 3.13 0 0 0 3.125 3.125v6.25A1.56 1.56 0 0 0 4.688 25h3.125a1.56 1.56 0 0 0 1.562-1.563v-6.25H9.8a12.5 12.5 0 0 1 8.838 3.662l2.129 2.13c.449.448 1.118.58 1.704.336s.966-.81.966-1.445v-7.202c.909-.43 1.563-1.587 1.563-2.95 0-1.362-.654-2.519-1.562-2.949zm-3.125 3.745V18.13A15.62 15.62 0 0 0 9.8 14.063h-.425V9.375H9.8c3.896 0 7.641-1.455 10.513-4.068"/><rect width="5.17" height="6.204" x="2.167" y="8.658" fill="#fff" rx="2.585"/><path fill="#fff" d="M5.092 18.216c0-.552.447-.998.998-.998h.25c.55 0 .997.447.997.997v3.867a1.123 1.123 0 0 1-2.245 0z"/></g><defs><clipPath id="a"><path fill="#fff" d="M0 0h25v25H0z"/></clipPath></defs></svg>
